svg/transport/sleigh_line.svg

<?xml version="1.0" encoding="UTF-8"?>
<svg width="24px" height="24px" viewBox="0 0 24 24" version="1.1" xmlns="http://www.w3.org/2000/svg" xmlns:xlink="http://www.w3.org/1999/xlink">
    <title>sleigh_line</title>
    <g id="Icon" stroke="none" stroke-width="1" fill="none" fill-rule="evenodd">
        <g id="Transport" transform="translate(0.000000, -288.000000)">
            <g id="sleigh_line" transform="translate(0.000000, 288.000000)">
                <path d="M24,0 L24,24 L0,24 L0,0 L24,0 Z M12.5935,23.2578 L12.5819,23.2595 L12.5109,23.295 L12.4919,23.2987 L12.4767,23.295 L12.4057,23.2595 C12.3958,23.2564 12.387,23.259 12.3821,23.2649 L12.378,23.2758 L12.3609,23.7031 L12.3659,23.7235 L12.3769,23.7357 L12.4805,23.8097 L12.4953,23.8136 L12.5071,23.8097 L12.6107,23.7357 L12.6233,23.7197 L12.6267,23.7031 L12.6096,23.2758 C12.6076,23.2657 12.601,23.2593 12.5935,23.2578 Z M12.8584,23.1453 L12.8445,23.1473 L12.6598,23.2397 L12.6499,23.2499 L12.6472,23.2611 L12.6651,23.6906 L12.6699,23.7034 L12.6784,23.7105 L12.8793,23.8032 C12.8914,23.8069 12.9022,23.803 12.9078,23.7952 L12.9118,23.7812 L12.8777,23.1665 C12.8753,23.1546 12.8674,23.147 12.8584,23.1453 Z M12.143,23.1473 C12.1332,23.1424 12.1222,23.1453 12.1156,23.1526 L12.1099,23.1665 L12.0758,23.7812 C12.0751,23.7927 12.0828,23.8019 12.0926,23.8046 L12.1083,23.8032 L12.3092,23.7105 L12.3186,23.7024 L12.3225,23.6906 L12.3404,23.2611 L12.3372,23.2485 L12.3278,23.2397 L12.143,23.1473 Z" id="MingCute" fill-rule="nonzero"></path>
                <path d="M15.1501,4.64895 C16.3824,4.12869 17.9511,3.86988 20.0624,4.00185 C20.3506,4.01986 20.6168,4.1615 20.7928,4.39035 C20.9436571,4.58651571 21.0154612,4.83034102 20.9972548,5.07426813 L20.9806,5.19602 L19.3022,13.5882 C19.0949529,14.6244353 18.3685308,15.4461266 17.4264027,15.804496 L17.2473,15.8662 L17.7808,18 L21,18 C21.5523,18 22,18.4477 22,19 C22,19.51285 21.613973,19.9355092 21.1166239,19.9932725 L21,20 L6.65685,20 C5.41917533,20 4.22881071,19.5410987 3.31322764,18.717527 L3.12132,18.5355 L2.29289,17.7071 C1.90237,17.3166 1.90237,16.6834 2.29289,16.2929 C2.65337923,15.9324385 3.22060645,15.9047107 3.61290152,16.2097166 L3.70711,16.2929 L4.53553,17.1213 C5.05125583,17.6370167 5.73541535,17.9456049 6.4587136,17.9934549 L6.65685,18 L7.21922,18 L7.73413,15.9404 C6.39927,15.7368 4.97328,15.0105 4.11225,13.7521 C3.00987,12.1409 3.00631,9.9377 4.66797,7.44517 C4.84799,7.17514 5.14786,7.00926 5.47227,7.00025 C5.79669,6.99124 6.1053,7.14023 6.30002,7.39986 C6.89867867,8.19805133 7.35475391,8.57395298 7.6948571,8.76183999 L7.84369,8.83606 L7.84369,8.83606 C8.19124,8.99053 8.49442,8.9999 9.00005,8.9999 C9.88071,8.9999 10.4087,8.74484 10.8569,8.37612 C11.15965,8.12702 11.426125,7.8379325 11.6823125,7.53883375 L12.1886708,6.93616977 C12.2733444,6.83646167 12.3588,6.73786167 12.446,6.64148 C13.0922,5.92728 13.9102,5.17247 15.1501,4.64895 Z M15.2192,15.9999 L9.7808,15.9999 L9.28078,18 L15.7192,18 L15.2192,15.9999 Z M18.7863,5.96967 C17.5216,5.99178 16.6131,6.20223 15.9281,6.49145 C15.0586,6.85855 14.4704,7.385 13.9291,7.9833 L13.6788956,8.26699493 L13.6788956,8.26699493 L13.1873085,8.84287609 C12.8581796,9.2254249 12.5191429,9.59836857 12.1276,9.92054 C11.3938133,10.5243693 10.4981742,10.9412931 9.26868468,10.9941992 L8.96205,10.9999 L8.64516952,10.9973448 C8.194766,10.986772 7.63759,10.93314 7.03139,10.6637 C6.58011,10.4631 6.13699,10.1611 5.68529,9.72974 C5.10981,11.0845 5.35028,12.0197 5.76287,12.6227 C6.32162,13.4393563 7.37970301,13.9352117 8.31484516,13.9940036 L8.50005,13.9999 L16.3604,13.9999 C16.797375,13.9999 17.1786396,13.7171465 17.3111679,13.3100039 L17.341,13.196 L18.7863,5.96967 Z" id="形状" fill="#09244B"></path>
            </g>
        </g>
    </g>
</svg>

<svg xmlns="http://www.w3.org/2000/svg" width="24" height="24"><g fill="none" fill-rule="evenodd"><path d="M24 0v24H0V0h24ZM12.594 23.258l-.012.002-.071.035-.02.004-.014-.004-.071-.036c-.01-.003-.019 0-.024.006l-.004.01-.017.428.005.02.01.013.104.074.015.004.012-.004.104-.074.012-.016.004-.017-.017-.427c-.002-.01-.009-.017-.016-.018Zm.264-.113-.014.002-.184.093-.01.01-.003.011.018.43.005.012.008.008.201.092c.012.004.023 0 .029-.008l.004-.014-.034-.614c-.003-.012-.01-.02-.02-.022Zm-.715.002a.023.023 0 0 0-.027.006l-.006.014-.034.614c0 .012.007.02.017.024l.015-.002.201-.093.01-.008.003-.011.018-.43-.003-.012-.01-.01-.184-.092Z"/><path fill="#09244B" d="M15.15 4.649c1.232-.52 2.801-.78 4.912-.647a1 1 0 0 1 .935 1.072l-.016.122-1.679 8.392a3 3 0 0 1-1.876 2.216l-.179.062.534 2.134H21a1 1 0 0 1 .117 1.993L21 20H6.657a5 5 0 0 1-3.344-1.282l-.192-.183-.828-.828a1 1 0 0 1 1.32-1.497l.094.083.829.828a3 3 0 0 0 1.923.872l.198.007h.562l.515-2.06c-1.335-.203-2.76-.93-3.622-2.188-1.102-1.611-1.106-3.814.556-6.307A1 1 0 0 1 6.3 7.4c.599.798 1.055 1.174 1.395 1.362l.149.074C8.19 8.991 8.494 9 9 9c.88 0 1.409-.255 1.857-.624.303-.249.57-.538.825-.837l.507-.603c.084-.1.17-.198.257-.295.646-.714 1.464-1.469 2.704-1.992Zm.07 11.35H9.78L9.28 18h6.44l-.5-2Zm3.566-10.03c-1.264.023-2.173.233-2.858.522-.87.368-1.458.894-1.999 1.492l-.25.284-.492.576c-.329.382-.668.755-1.06 1.078-.733.603-1.629 1.02-2.858 1.073L8.962 11l-.317-.003c-.45-.01-1.007-.064-1.614-.333-.45-.2-.894-.503-1.346-.934-.575 1.354-.335 2.29.078 2.893.559.816 1.617 1.312 2.552 1.371L8.5 14h7.86a1 1 0 0 0 .951-.69l.03-.114 1.445-7.226Z"/></g></svg>
